SVG_Azure_Grouped/Management/Automation Run as Account.svg

<?xml version="1.0" encoding="UTF-8" standalone="no"?>
<!-- Generated by Microsoft Visio, SVG Export Automation Run as Account.svg Page-1 -->

<svg
   xmlns:dc="http://purl.org/dc/elements/1.1/"
   xmlns:cc="http://creativecommons.org/ns#"
   xmlns:rdf="http://www.w3.org/1999/02/22-rdf-syntax-ns#"
   xmlns:svg="http://www.w3.org/2000/svg"
   xmlns="http://www.w3.org/2000/svg"
   xmlns:sodipodi="http://sodipodi.sourceforge.net/DTD/sodipodi-0.dtd"
   xmlns:inkscape="http://www.inkscape.org/namespaces/inkscape"
   width="0.78735989in"
   height="0.78283232in"
   viewBox="0 0 56.689997 56.363858"
   xml:space="preserve"
   class="st2"
   version="1.1"
   id="svg24"
   sodipodi:docname="Automation Run as Account.svg"
   style="font-size:12px;overflow:visible;color-interpolation-filters:sRGB;fill:none;fill-rule:evenodd;stroke-linecap:square;stroke-miterlimit:3"
   inkscape:version="0.92.5 (2060ec1f9f, 2020-04-08)"><metadata
   id="metadata30"><rdf:RDF><cc:Work
       rdf:about=""><dc:format>image/svg+xml</dc:format><dc:type
         rdf:resource="http://purl.org/dc/dcmitype/StillImage" /></cc:Work></rdf:RDF></metadata><defs
   id="defs28" /><sodipodi:namedview
   pagecolor="#ffffff"
   bordercolor="#666666"
   borderopacity="1"
   objecttolerance="10"
   gridtolerance="10"
   guidetolerance="10"
   inkscape:pageopacity="0"
   inkscape:pageshadow="2"
   inkscape:window-width="640"
   inkscape:window-height="480"
   id="namedview26"
   showgrid="false"
   inkscape:zoom="1.3322278"
   inkscape:cx="37.795279"
   inkscape:cy="37.573274"
   inkscape:window-x="0"
   inkscape:window-y="0"
   inkscape:window-maximized="0"
   inkscape:current-layer="svg24" />
	<style
   type="text/css"
   id="style2">
	<![CDATA[
		.st1 {fill:#000000;stroke:none;stroke-linecap:butt;stroke-width:38.25}
		.st2 {fill:none;fill-rule:evenodd;font-size:12px;overflow:visible;stroke-linecap:square;stroke-miterlimit:3}
	]]>
	</style>

	<g
   id="g22"
   transform="translate(-38.25,-38.24617)">
		<title
   id="title4">Page-1</title>
		<g
   id="group13095-1"
   transform="translate(38.25,-38.25)">
			<title
   id="title6">Automation Run as Account.13095</title>
			<g
   id="group13096-2">
				<title
   id="title8">Sheet.13096</title>
				<g
   id="shape13097-3"
   transform="translate(3.20903,-14.0852)">
					<title
   id="title10">Sheet.13097</title>
					<path
   d="M 11.05,90.6 C 5.35,90.25 0.71,94.83 0.36,100.46 v 0.71 c -0.36,5.63 4.28,10.21 9.98,10.56 h 0.71 c 5.71,0.35 10.34,-4.22 10.7,-9.86 v -0.7 C 22.11,95.53 17.47,90.96 11.77,90.6 Z m 0,17.61 c -3.92,0 -7.13,-3.17 -7.13,-7.04 0,-3.88 3.21,-7.04 7.13,-7.04 3.93,0 7.13,3.16 7.13,7.04 0,3.87 -3.2,7.04 -7.13,7.04 z m 23.18,0 c -6.77,0 -12.48,5.63 -12.48,12.33 0,6.69 5.71,12.32 12.48,12.32 6.77,0 12.48,-5.63 12.48,-12.32 0,-6.7 -5.71,-12.33 -12.48,-12.33 z m 0,21.13 c -4.99,0 -8.91,-3.87 -8.91,-8.8 0,-4.93 3.92,-8.81 8.91,-8.81 4.99,0 8.91,3.88 8.91,8.81 0,4.93 -3.92,8.8 -8.91,8.8 z"
   class="st1"
   id="path12"
   inkscape:connector-curvature="0"
   style="fill:#000000;stroke:none;stroke-width:38.25;stroke-linecap:butt" />
				</g>
				<g
   id="shape13098-5">
					<title
   id="title15">Sheet.13098</title>
					<path
   d="m 24.96,108.21 h 3.56 C 28.52,100.46 22.11,94.13 14.26,94.13 6.42,94.13 0,100.46 0,108.21 H 3.57 C 3.21,102.58 7.84,98 13.55,97.65 h 0.71 c 5.71,0 9.99,3.87 10.7,10.56 z m -3.21,24.65 c 1.07,-7.75 7.49,-14.09 15.69,-14.09 8.2,0 14.97,6.34 15.69,14.09 h 3.56 C 55.62,123 47.42,115.25 37.08,115.25 26.74,115.25 18.9,123 17.83,132.86 Z"
   class="st1"
   id="path17"
   inkscape:connector-curvature="0"
   style="fill:#000000;stroke:none;stroke-width:38.25;stroke-linecap:butt" />
				</g>
			</g>
		</g>
	</g>
</svg>

<?xml version="1.0" encoding="UTF-8" standalone="no"?>
<!DOCTYPE svg PUBLIC "-//W3C//DTD SVG 1.1//EN" "http://www.w3.org/Graphics/SVG/1.1/DTD/svg11.dtd">
<!-- Generated by Microsoft Visio, SVG Export Automation Run as Account.svg Page-1 -->
<svg xmlns="http://www.w3.org/2000/svg" xmlns:xlink="http://www.w3.org/1999/xlink" xmlns:ev="http://www.w3.org/2001/xml-events"
		width="1.8499in" height="1.84528in" viewBox="0 0 133.193 132.86" xml:space="preserve" color-interpolation-filters="sRGB"
		class="st2">
	<style type="text/css">
	<![CDATA[
		.st1 {fill:#000000;stroke:none;stroke-linecap:butt;stroke-width:38.25}
		.st2 {fill:none;fill-rule:evenodd;font-size:12px;overflow:visible;stroke-linecap:square;stroke-miterlimit:3}
	]]>
	</style>

	<g>
		<title>Page-1</title>
		<g id="group12802-1" transform="translate(38.25,-38.25)">
			<title>Automation Run as Account.12802</title>
			<g id="group12803-2">
				<title>Sheet.12803</title>
				<g id="shape12804-3" transform="translate(3.20903,-14.0852)">
					<title>Sheet.12804</title>
					<path d="M11.05 90.6 C5.35 90.25 0.71 94.83 0.36 100.46 L0.36 101.17 C0 106.8 4.64 111.38 10.34 111.73 L11.05
								 111.73 C16.76 112.08 21.39 107.51 21.75 101.87 L21.75 101.17 C22.11 95.53 17.47 90.96 11.77 90.6
								 L11.05 90.6 ZM11.05 108.21 C7.13 108.21 3.92 105.04 3.92 101.17 C3.92 97.29 7.13 94.13 11.05 94.13
								 C14.98 94.13 18.18 97.29 18.18 101.17 C18.18 105.04 14.98 108.21 11.05 108.21 ZM34.23 108.21 C27.46
								 108.21 21.75 113.84 21.75 120.54 C21.75 127.23 27.46 132.86 34.23 132.86 C41 132.86 46.71 127.23
								 46.71 120.54 C46.71 113.84 41 108.21 34.23 108.21 ZM34.23 129.34 C29.24 129.34 25.32 125.47 25.32
								 120.54 C25.32 115.61 29.24 111.73 34.23 111.73 C39.22 111.73 43.14 115.61 43.14 120.54 C43.14 125.47
								 39.22 129.34 34.23 129.34 Z" class="st1"/>
				</g>
				<g id="shape12805-5">
					<title>Sheet.12805</title>
					<path d="M24.96 108.21 L28.52 108.21 C28.52 100.46 22.11 94.13 14.26 94.13 C6.42 94.13 0 100.46 0 108.21 L3.57
								 108.21 C3.21 102.58 7.84 98 13.55 97.65 L14.26 97.65 C19.97 97.65 24.25 101.52 24.96 108.21 ZM21.75
								 132.86 C22.82 125.11 29.24 118.77 37.44 118.77 C45.64 118.77 52.41 125.11 53.13 132.86 L56.69 132.86
								 C55.62 123 47.42 115.25 37.08 115.25 C26.74 115.25 18.9 123 17.83 132.86 L21.75 132.86 Z"
							class="st1"/>
				</g>
			</g>
		</g>
	</g>
</svg>
